22x22/panel/simplescreenrecorder-error.svg

<svg xmlns="http://www.w3.org/2000/svg" width="22" height="22" version="1">
 <defs>
  <style id="current-color-scheme" type="text/css">
   .ColorScheme-Text { color:#d3dae3; } .ColorScheme-Highlight { color:#4285f4; }
  </style>
 </defs>
 <path style="fill:currentColor" class="ColorScheme-Highlight" d="M 3.1816406 5 C 2.5269406 5 2 5.5344188 2 6.1992188 L 2 15.800781 C 2 16.465781 2.5269406 17 3.1816406 17 L 14.818359 17 C 15.473359 17 16 16.465781 16 15.800781 L 16 13 L 21 15 L 21 7 L 16 9 L 16 6.1992188 C 16 5.5344187 15.473359 5 14.818359 5 L 3.1816406 5 z M 6.7773438 7 L 9 9.2226562 L 11.222656 7 L 13 8.7773438 L 10.777344 11 L 13 13.222656 L 11.222656 15 L 9 12.777344 L 6.7773438 15 L 5 13.222656 L 7.2226562 11 L 5 8.7773438 L 6.7773438 7 z"/>
</svg>

<svg xmlns="http://www.w3.org/2000/svg" width="22" height="22" version="1"><defs><style id="current-color-scheme" type="text/css"></style></defs><path style="fill:currentColor;color:#4285f4" d="M3.182 5C2.527 5 2 5.534 2 6.2v9.6c0 .666.527 1.2 1.182 1.2h11.636c.655 0 1.182-.534 1.182-1.2V13l5 2V7l-5 2V6.2c0-.666-.527-1.2-1.182-1.2H3.182zm3.595 2L9 9.223 11.223 7 13 8.777 10.777 11 13 13.223 11.223 15 9 12.777 6.777 15 5 13.223 7.223 11 5 8.777 6.777 7z"/></svg>
